src/lib/libraries/extensions/smart-lumies/smart-lumies-button-illustration.svg

<?xml version="1.0" standalone="no"?>
<!DOCTYPE svg PUBLIC "-//W3C//DTD SVG 1.0//EN" "http://www.w3.org/TR/2001/REC-SVG-20010904/DTD/svg10.dtd">
<svg xmlns="http://www.w3.org/2000/svg" xmlns:xlink="http://www.w3.org/1999/xlink" id="body_1" width="22" height="38">

<g transform="matrix(1 0 0 1 0 0)">
	<g transform="matrix(0.73333335 0 0 0.73333335 -0 0.66666603)">
		<g>
            <path d="M11.059 44.765L4 44.765C 2.7649999 44.765 1.8239999 43.765 1.8239999 42.587997L1.8239999 42.587997L1.8239999 35.53C 1.8239999 34.295 2.824 33.354 4 33.354L4 33.354L11.059 33.354C 12.294 33.354 13.235001 34.354 13.235001 35.53L13.235001 35.53L13.235001 42.59C 13.236332 43.16752 13.0075035 43.721767 12.599134 44.130135C 12.190767 44.5385 11.6365185 44.76733 11.059 44.766L11.059 44.766L11.059 44.765z" stroke="none" fill="#F9BE03" fill-rule="nonzero" />
            <path d="M22.235 18.118C 18.760519 18.114143 15.944859 15.298482 15.941 11.823999C 15.944307 8.349127 18.76013 5.5328584 22.235 5.5289993C 25.709871 5.5328584 28.525694 8.349127 28.529001 11.823999C 28.525143 15.298482 25.709482 18.114143 22.235 18.118z" stroke="none" fill="#FE88A2" fill-rule="nonzero" />
            <path d="M1 17.706C 0.9851961 23.653566 5.2582884 28.746391 11.118 29.765C 12.294 30 13.294001 29.118 13.294001 27.941L13.294001 27.941L13.294001 7.471C 13.294001 6.235 12.294001 5.4110003 11.118 5.6470003C 5.353 6.647 1 11.647 1 17.706z" stroke="none" fill="#FF445C" fill-rule="nonzero" />
            <path d="M28.412 32.53C 28.427292 26.582054 24.154085 21.488668 18.294 20.469997C 17.118 20.234997 16.118 21.117998 16.118 22.293997L16.118 22.293997L16.118 42.763996C 16.118 43.999996 17.118 44.823997 18.294 44.587997C 24.059 43.587997 28.412 38.529 28.412 32.529L28.412 32.529L28.412 32.53z" stroke="none" fill="#186CE8" fill-rule="nonzero" />
		</g>
	</g>
</g>
</svg>

<svg xmlns="http://www.w3.org/2000/svg" width="40" height="40" viewBox="0 0 30 50">
    <g fill="none" fill-rule="nonzero">
        <path fill="#F9BE03" d="M11.059 44.765H4c-1.235 0-2.176-1-2.176-2.177V35.53c0-1.235 1-2.176 2.176-2.176h7.059c1.235 0 2.176 1 2.176 2.176v7.06a2.171 2.171 0 0 1-2.176 2.176z"/>
        <path fill="#FE88A2" d="M22.235 18.118a6.301 6.301 0 0 1-6.294-6.294 6.301 6.301 0 0 1 6.294-6.295 6.301 6.301 0 0 1 6.294 6.295 6.301 6.301 0 0 1-6.294 6.294z"/>
        <path fill="#FF445C" d="M1 17.706a12.209 12.209 0 0 0 10.118 12.059c1.176.235 2.176-.647 2.176-1.824V7.471c0-1.236-1-2.06-2.176-1.824C5.353 6.647 1 11.647 1 17.706z"/>
        <path fill="#186CE8" d="M28.412 32.53a12.209 12.209 0 0 0-10.118-12.06c-1.176-.235-2.176.648-2.176 1.824v20.47c0 1.236 1 2.06 2.176 1.824 5.765-1 10.118-6.059 10.118-12.059z"/>
    </g>
</svg>
